src/svgs/icon-feedback-dislike.svg

<svg width="24" height="24" viewBox="0 0 24 24" fill="none" xmlns="http://www.w3.org/2000/svg">
<g id="icon-good">
<g id="Group">
<path id="Union" fill-rule="evenodd" clip-rule="evenodd" d="M11.6538 18.6644L11.6532 18.6652C11.2487 19.1875 10.4716 19.1895 10.0748 18.7022C9.91197 18.5016 9.82395 18.2585 9.82395 18.0116V14.3337C9.82395 13.816 9.40422 13.3962 8.88645 13.3962H5.39976C5.04099 13.3962 4.69967 13.2173 4.48881 12.9081L4.48789 12.9068L4.11909 12.3591L4.11608 12.3547C3.94167 12.0989 3.8904 11.7724 3.98222 11.4603L5.51387 6.1445C5.64514 5.68505 6.07272 5.36229 6.55824 5.36229H13.6328C13.9333 5.36229 14.2261 5.48913 14.4331 5.70657L15.5635 6.92898V13.5763L11.6538 18.6644ZM16.3838 15.5861L13.139 19.8088L13.1375 19.8108C12.0121 21.2671 9.79817 21.3325 8.6205 19.8857C8.19873 19.3665 7.94895 18.7093 7.94895 18.0116V15.2712H5.39976C4.40936 15.2712 3.49145 14.7759 2.93741 13.9611L2.93505 13.9576L2.5669 13.411L2.5652 13.4085C2.0667 12.6757 1.93834 11.7672 2.18261 10.9338L2.18339 10.9312L3.71101 5.6294C4.07483 4.35709 5.24439 3.48729 6.55824 3.48729H13.6328C14.4558 3.48729 15.2414 3.83167 15.7991 4.42218L15.8058 4.42936L15.8721 4.50107C16.2457 3.88653 16.9215 3.47606 17.6933 3.47606H19.8078C20.984 3.47606 21.9375 4.42956 21.9375 5.60578V13.9063C21.9375 15.0826 20.984 16.0361 19.8078 16.0361H17.6933C17.1995 16.0361 16.745 15.8681 16.3838 15.5861ZM20.0625 13.9063C20.0625 14.047 19.9485 14.1611 19.8078 14.1611H17.6933C17.5526 14.1611 17.4385 14.047 17.4385 13.9063V5.60578C17.4385 5.4651 17.5526 5.35106 17.6933 5.35106H19.8078C19.9485 5.35106 20.0625 5.4651 20.0625 5.60578V13.9063Z" fill="black"/>
</g>
</g>
</svg>

<svg width="24" height="24" fill="none" xmlns="http://www.w3.org/2000/svg"><path fill-rule="evenodd" clip-rule="evenodd" d="M11.654 18.664v.001c-.405.523-1.182.524-1.58.037-.162-.2-.25-.444-.25-.69v-3.678a.938.938 0 0 0-.938-.938H5.4c-.359 0-.7-.179-.911-.488l-.001-.001-.369-.548-.003-.004a1.054 1.054 0 0 1-.134-.895l1.532-5.316c.131-.459.559-.782 1.044-.782h7.075c.3 0 .593.127.8.345l1.13 1.222v6.647l-3.91 5.088Zm4.73-3.078-3.245 4.223-.002.002c-1.125 1.456-3.339 1.521-4.517.075a2.975 2.975 0 0 1-.671-1.874v-2.74h-2.55c-.99 0-1.908-.496-2.462-1.31l-.002-.004-.368-.547-.002-.002a2.93 2.93 0 0 1-.382-2.475v-.003L3.711 5.63a2.963 2.963 0 0 1 2.847-2.142h7.075c.823 0 1.608.345 2.166.935l.007.007.066.072a2.129 2.129 0 0 1 1.821-1.025h2.115a2.13 2.13 0 0 1 2.13 2.13v8.3a2.13 2.13 0 0 1-2.13 2.13h-2.115a2.12 2.12 0 0 1-1.31-.45Zm3.678-1.68c0 .141-.114.255-.254.255h-2.115a.255.255 0 0 1-.255-.255v-8.3c0-.14.115-.255.255-.255h2.115c.14 0 .255.114.255.255v8.3Z" fill="#000"/></svg>
